resources/svg/speaker-high-fill.svg

<svg xmlns="http://www.w3.org/2000/svg" viewBox="0 0 256 256" fill="currentColor"><path d="M248,128.00869A79.47687,79.47687,0,0,1,224.56836,184.578a8.00053,8.00053,0,0,1-11.31445-11.31446,63.99788,63.99788,0,0,0,0-90.50976,8.00053,8.00053,0,0,1,11.31445-11.31446A79.47687,79.47687,0,0,1,248,128.00869Zm-88-96v192a7.99935,7.99935,0,0,1-12.91113,6.31445l-69.834-54.31445H32a16.01833,16.01833,0,0,1-16-16v-64a16.01833,16.01833,0,0,1,16-16H77.25488l69.834-54.31445A7.99958,7.99958,0,0,1,160,32.00869Zm-128,128H71.9707v-64H32Zm152.96973-60.2832a7.99913,7.99913,0,0,0,.001,11.31347,23.99832,23.99832,0,0,1,0,33.93946,7.99983,7.99983,0,1,0,11.3125,11.31445,39.99719,39.99719,0,0,0,0-56.56836A7.99825,7.99825,0,0,0,184.96973,99.72549Z"/></svg>

<svg xmlns="http://www.w3.org/2000/svg" viewBox="0 0 256 256" fill="currentColor"><path d="M248,128a79.5,79.5,0,0,1-23.4,56.6,8.3,8.3,0,0,1-5.7,2.3,8,8,0,0,1-5.6-2.3,7.9,7.9,0,0,1,0-11.3,64.2,64.2,0,0,0,0-90.6,7.9,7.9,0,0,1,0-11.3,8,8,0,0,1,11.3,0A79.5,79.5,0,0,1,248,128ZM160,32V224a8,8,0,0,1-4.5,7.2,8.5,8.5,0,0,1-3.5.8,8.1,8.1,0,0,1-4.9-1.7L77.3,176H32a16,16,0,0,1-16-16V96A16,16,0,0,1,32,80H77.3l69.8-54.3A8,8,0,0,1,160,32ZM32,160H72V96H32ZM185,99.7a7.9,7.9,0,0,0,0,11.3,24.1,24.1,0,0,1,0,34,7.9,7.9,0,0,0,0,11.3,8,8,0,0,0,5.6,2.3,8.3,8.3,0,0,0,5.7-2.3,40.1,40.1,0,0,0,0-56.6A8,8,0,0,0,185,99.7Z"/></svg>
